X: 080590
T: Hag With the Money
S: J. O'Brien: "Irish Folk Dance Music" 
Z: B.Black
M: 6/8
L: 1/8
R: jig 
K: Dmix
Add ABc | AGE G2 E | Ad^c A2 B | cBA GED |
Add ABc | AGE E/G/EF | DFA cde | dcA GFG :|
AB^c d2 e | fed ed^c | AB^c d2 e | faf ge^c |
AB^c d2 e | fed efg | aed ^cde | dcA GFG :|
